webroot/assets/sticky-card/sticky-card-theme-light.svg

<svg xmlns="http://www.w3.org/2000/svg" width="277" height="361"><defs><filter id="a" width="274" height="361" x="0" y="0" filterUnits="userSpaceOnUse"><feOffset dy="3"/><feGaussianBlur stdDeviation="2" result="b"/><feFlood flood-opacity=".102"/><feComposite operator="in" in2="b"/><feComposite in="SourceGraphic"/></filter></defs><g fill="#fff" stroke="#d2d2d2" transform="translate(0 0)" filter="url(#a)"><path stroke="none" d="M9 3h259v349H9a3 3 0 0 1-3-3V6a3 3 0 0 1 3-3z"/><path fill="none" d="M9 3.5h258a.5.5 0 0 1 .5.5v347a.5.5 0 0 1-.5.5H9a2.5 2.5 0 0 1-2.5-2.5V6A2.5 2.5 0 0 1 9 3.5z"/></g><g fill="#06c"><path d="M176 310l-1.5 1.5 4.5 4.5h-10v2h10l-4.5 4.5 1.5 1.5 7-7z"/><text transform="translate(30 323)" font-size="18" font-family="RedHatDisplay-Bold, Red Hat Display" font-weight="700"><tspan x="0" y="0">Get the e-book</tspan></text></g><text fill="#151515" transform="translate(30 196)" font-size="16" font-family="RedHatText-Regular, Red Hat Text"><tspan x="0" y="16">This book shows you how</tspan><tspan x="0" y="40">Operators work and how to</tspan><tspan x="0" y="64">build them with the Operator</tspan><tspan x="0" y="88">Framework and SDK.</tspan></text><text fill="#151515" transform="translate(30 102)" font-size="20" font-family="RedHatDisplay-Medium, Red Hat Display" font-weight="500"><tspan x="0" y="20">Automating the</tspan><tspan x="0" y="46">container orchestration</tspan><tspan x="0" y="72">platform</tspan></text><text fill="#151515" transform="translate(30 81)" font-size="16" font-family="RedHatText-Regular, Red Hat Text"><tspan x="0" y="0">E-BOOK</tspan></text><path fill="none" d="M30 27h14v14H30z"/><path fill="#6a6e73" d="M38.9 34l2.84-2.84a.9.9 0 0 0 0-1.27l-.63-.64a.9.9 0 0 0-1.25 0L37 32.1l-2.84-2.84a.9.9 0 0 0-1.27 0l-.64.63a.9.9 0 0 0 0 1.26L35.1 34l-2.84 2.84a.9.9 0 0 0 0 1.27l.63.64a.9.9 0 0 0 1.26 0L37 35.9l2.84 2.84a.9.9 0 0 0 1.27 0l.64-.63a.9.9 0 0 0 0-1.25z"/><path fill="#fff" d="M267 3h10v349h-10z"/></svg>

<svg xmlns="http://www.w3.org/2000/svg" width="271" height="349" viewBox="0 0 271 349"><defs><style>.a{fill:#fff;}.b,.g{fill:none;}.b{stroke:#d2d2d2;}.c,.d{fill:#06c;}.d{font-size:18px;font-family:RedHatDisplay-Bold, Red Hat Display;font-weight:700;}.e,.f{fill:#151515;}.e{font-size:16px;font-family:RedHatText-Regular, Red Hat Text;}.f{font-size:20px;font-family:RedHatDisplay-Medium, Red Hat Display;font-weight:500;}.h{fill:#6a6e73;}</style></defs><g transform="translate(-6 -3)"><path class="a" d="M9,3H268V352H9a3,3,0,0,1-3-3V6A3,3,0,0,1,9,3Z"/><path class="b" d="M9,3.5H267a.5.5,0,0,1,.5.5V351a.5.5,0,0,1-.5.5H9A2.5,2.5,0,0,1,6.5,349V6A2.5,2.5,0,0,1,9,3.5Z"/><path class="c" d="M176,310l-1.5,1.5L179,316H169v2h10l-4.5,4.5L176,324l7-7Z"/><text class="d" transform="translate(30 323)"><tspan x="0" y="0">Get the e-book</tspan></text><text class="e" transform="translate(30 212)"><tspan x="0" y="0">This book shows you how</tspan><tspan x="0" y="24">Operators work and how to</tspan><tspan x="0" y="48">build them with the Operator</tspan><tspan x="0" y="72">Framework and SDK.</tspan></text><text class="f" transform="translate(30 122)"><tspan x="0" y="0">Automating the</tspan><tspan x="0" y="26">container orchestration</tspan><tspan x="0" y="52">platform</tspan></text><text class="e" transform="translate(30 81)"><tspan x="0" y="0">E-BOOK</tspan></text><path class="g" d="M30,27H44V41H30Z"/><path class="h" d="M38.9,34l2.84-2.84a.9.9,0,0,0,0-1.27l-.63-.64a.9.9,0,0,0-1.25,0L37,32.1l-2.84-2.84a.9.9,0,0,0-1.27,0l-.64.63a.9.9,0,0,0,0,1.26L35.1,34l-2.84,2.84a.9.9,0,0,0,0,1.27l.63.64a.9.9,0,0,0,1.26,0L37,35.9l2.84,2.84a.9.9,0,0,0,1.27,0l.64-.63a.9.9,0,0,0,0-1.25Z"/><path class="a" d="M267,3h10V352H267Z"/></g></svg>
